X: 2
T:Kit O'Connor's Reel (Damp in the Attic's version)
M:4/4
L:1/8
S:Damp in the Attic
R:reel
Z:Naka Ishii <n_ishii@YAHOO.COM> irtrad-l 2000-10-25
K:A
E3F ABcd | eA~A2 BFAF | E3F ABcB | AF~F2 dFAF |
E2CE A,ECE | dBcA BAFE | CE~E2 BAf2 |1 ecBc ABAF :|2 ecBc ABcf |
| eA~A2 EAaf | eA~A2 BAFA | ec~c2 acec | dBcA Bcdf |
ec~c2 acec | dBcA BAFA | a2ge fgaf |1 e2cA Bcdf :|2 eAcA BFAF ||
